Catalina-light/actions/16/office-chart-area-stacked.svg

<svg xmlns="http://www.w3.org/2000/svg" width="16" height="16" viewBox="0 0 16 16">
 <defs>
  <style id="current-color-scheme" type="text/css">
   .ColorScheme-Text { color:#5c616c; } .ColorScheme-Highlight { color:#5294e2; }
  </style>
 </defs>
 <path style="fill:currentColor" class="ColorScheme-Text" d="M 2 2 L 2 4.9960938 L 1.0078125 4.9960938 L 1.0078125 5.0058594 L 2 5.0058594 L 2 14 L 14 14 L 14 13 L 3 13 L 3 5.0058594 L 7.46875 5.0058594 L 4.46875 8.0058594 L 3.0078125 8.0058594 L 3.0078125 9.0058594 L 4.8828125 9.0058594 L 9.0058594 4.8828125 L 11.128906 7.0058594 L 11.134766 7.0019531 L 11.138672 7.0058594 L 13.966797 4.1777344 C 13.969797 4.1827344 13.259766 3.4707031 13.259766 3.4707031 L 11.134766 5.5957031 L 9.0078125 3.4707031 L 9.0058594 3.4726562 L 9.0039062 3.4707031 L 7.4765625 4.9960938 L 3 4.9960938 L 3 2 L 2 2 z M 7.5996094 9 L 5.5996094 11 L 3.0058594 11 L 3.0058594 12 L 6.0058594 12 L 6.0058594 11.992188 L 6.0136719 12 L 8.0136719 10 L 9.6054688 10 L 11.605469 12 L 14.005859 12 L 14.005859 11 L 12.019531 11 L 10.019531 9 L 8.6054688 9 L 7.5996094 9 z"/>
 <path style="fill:currentColor;opacity:0.5" class="ColorScheme-Text" d="M 13.46,3.67 11.14,6.001 11.136,5.997 11.13,6.001 9.007,3.878 4.884,8.001 l -1.875,0 0,5 11,0 0,-8.778 z"/>
</svg>

<svg width="16" height="16" viewBox="0 0 16 16" xmlns="http://www.w3.org/2000/svg">
<defs>
<style id="current-color-scheme" type="text/css">.ColorScheme-Text { color:#5c616c; } .ColorScheme-Highlight { color:#5294e2; }</style>
</defs>
<path class="ColorScheme-Text" d="m2 2v2.9961h-0.99219v0.0097656h0.99219v8.9941h12v-1h-11v-7.9941h4.4688l-3 3h-1.4609v1h1.875l4.123-4.123 2.123 2.123 0.00586-0.0039063 0.003906 0.0039063 2.8281-2.8281c3e-3 5e-3 -0.70703-0.70703-0.70703-0.70703l-2.125 2.125-2.127-2.125-0.0019531 0.0019531-0.0019532-0.0019531-1.5273 1.5254h-4.4766v-2.9961h-1zm5.5996 7-2 2h-2.5938v1h3v-0.007812l0.0078125 0.007812 2-2h1.5918l2 2h2.4004v-1h-1.9863l-2-2h-2.42z" fill="currentColor"/>
<path class="ColorScheme-Text" d="m13.46 3.67-2.32 2.331-4e-3 -4e-3 -6e-3 4e-3 -2.123-2.123-4.123 4.123h-1.875v5h11v-8.778z" fill="currentColor" opacity=".5"/>
</svg>
